svgs/itsme.svg

<svg xmlns="http://www.w3.org/2000/svg" viewBox="0 0 192 192"><path d="M52.798 124.679a13.356 13.356 0 0 1 13.353-13.35 13.36 13.36 0 0 1 9.441 3.91 13.359 13.359 0 0 1 3.912 9.44v21.365m-26.706-34.718v34.718" fill="none" stroke="#000" stroke-width="8" stroke-linecap="round" stroke-linejoin="round"/><path d="M79.503 124.679a13.359 13.359 0 0 1 3.912-9.44 13.36 13.36 0 0 1 9.441-3.91c3.539 0 6.937 1.408 9.441 3.91a13.359 13.359 0 0 1 3.912 9.44v21.365m33.224-6.678a12.926 12.926 0 0 1-11.352 6.676 13.396 13.396 0 0 1-9.431-3.922 13.396 13.396 0 0 1-3.922-9.431v-8.679a13.356 13.356 0 0 1 13.353-13.346 13.355 13.355 0 0 1 13.353 13.346v4.673H114.73" fill="none" stroke="#000" stroke-width="8" stroke-linecap="round" stroke-linejoin="round"/><path d="M53.127 47.734a2.77 2.77 0 0 0-2.774 2.773 2.775 2.775 0 0 0 4.735 1.961c.519-.52.812-1.226.812-1.961a2.774 2.774 0 0 0-2.773-2.773Z"/><path d="M87.456 93.182a16.918 16.918 0 0 0 11.448 2.862h2.864a9.303 9.303 0 0 0 0-18.603h-6.441a9.305 9.305 0 0 1-9.299-9.302c0-2.466.98-4.833 2.723-6.577a9.309 9.309 0 0 1 6.576-2.725h2.862c6.44 0 9.302.715 11.448 2.862" fill="none" stroke="#000" stroke-width="8" stroke-linecap="round" stroke-linejoin="round"/><path d="M53.104 88.889a6.759 6.759 0 0 0 3.485 6.331 6.749 6.749 0 0 0 3.671.824c3.47.351 6.942-.678 9.661-2.862m.718-47.227v42.934a6.767 6.767 0 0 0 .824 3.671 6.76 6.76 0 0 0 6.331 3.484c3.47.351 6.943-.678 9.662-2.862" fill="none" stroke="#000" stroke-width="8" stroke-linecap="round" stroke-miterlimit="8.148"/><path d="M70.639 58.121h9.799" fill="none" stroke="#000" stroke-width="8" stroke-linecap="round" stroke-linejoin="round"/><path d="m53.104 88.889.024-30.767" fill="none" stroke="#000" stroke-width="8" stroke-linecap="round" stroke-miterlimit="8.148"/><path d="M96 16.5a79.529 79.529 0 0 0-56.215 23.285A79.529 79.529 0 0 0 16.5 96a79.529 79.529 0 0 0 23.285 56.215A79.529 79.529 0 0 0 96 175.5a79.529 79.529 0 0 0 56.215-23.285A79.529 79.529 0 0 0 175.5 96a79.529 79.529 0 0 0-23.285-56.215A79.529 79.529 0 0 0 96 16.5Z" fill="none" stroke="#000" stroke-width="8" stroke-linecap="round" stroke-linejoin="round"/></svg>

<svg
    xmlns="http://www.w3.org/2000/svg"
    viewBox="0 0 192 192"
    id="vector">
    <path
        id="path"
        d="M 52.798 124.679 C 52.799 121.139 54.207 117.742 56.711 115.239 C 59.214 112.737 62.612 111.329 66.151 111.329 C 69.691 111.329 73.089 112.737 75.592 115.239 C 78.095 117.742 79.503 121.139 79.504 124.679 L 79.504 146.044 M 52.798 111.326 L 52.798 146.044"
        fill="none"
        stroke="#000000"
        stroke-width="8"
        stroke-linecap="round"
        stroke-linejoin="round"/>
    <path
        id="path_1"
        d="M 79.503 124.679 C 79.504 121.139 80.912 117.742 83.415 115.239 C 85.918 112.737 89.316 111.329 92.856 111.329 C 96.395 111.329 99.793 112.737 102.297 115.239 C 104.8 117.742 106.208 121.139 106.209 124.679 L 106.209 146.044 M 139.433 139.366 C 138.313 141.394 136.668 143.084 134.671 144.259 C 132.674 145.433 130.398 146.049 128.081 146.042 C 124.544 146.032 121.151 144.621 118.65 142.12 C 116.149 139.619 114.738 136.226 114.728 132.689 L 114.728 124.01 C 114.73 120.471 116.139 117.074 118.642 114.573 C 121.145 112.071 124.542 110.664 128.081 110.664 C 131.62 110.664 135.017 112.071 137.52 114.573 C 140.023 117.074 141.432 120.471 141.434 124.01 L 141.434 128.683 L 114.73 128.683"
        fill="none"
        stroke="#000000"
        stroke-width="8"
        stroke-linecap="round"
        stroke-linejoin="round"/>
    <path
        id="path_2"
        d="M 53.127 47.734 C 52.391 47.734 51.685 48.026 51.166 48.546 C 50.646 49.066 50.353 49.772 50.353 50.507 C 50.353 51.242 50.646 51.948 51.166 52.468 C 51.685 52.988 52.391 53.28 53.127 53.28 C 53.862 53.28 54.568 52.988 55.088 52.468 C 55.607 51.948 55.9 51.242 55.9 50.507 C 55.9 49.772 55.607 49.066 55.088 48.546 C 54.568 48.026 53.862 47.734 53.127 47.734 Z"
        fill="#000000"
        stroke-width="8"/>
    <path
        id="path_3"
        d="M 87.456 93.182 C 90.804 95.479 94.869 96.495 98.904 96.044 L 101.768 96.044 C 104.233 96.043 106.599 95.061 108.341 93.318 C 110.084 91.574 111.063 89.207 111.063 86.743 C 111.063 84.278 110.084 81.911 108.341 80.167 C 106.599 78.424 104.233 77.442 101.768 77.441 L 95.327 77.441 C 92.861 77.44 90.494 76.459 88.751 74.715 C 87.008 72.971 86.028 70.604 86.028 68.139 C 86.028 65.673 87.008 63.306 88.751 61.562 C 90.494 59.819 92.861 58.838 95.327 58.837 L 98.189 58.837 C 104.629 58.837 107.491 59.552 109.637 61.699"
        fill="none"
        stroke="#000000"
        stroke-width="8"
        stroke-linecap="round"
        stroke-linejoin="round"/>
    <path
        id="path_4"
        d="M 53.104 88.889 C 53.026 90.166 53.312 91.439 53.929 92.56 C 54.546 93.68 55.469 94.603 56.589 95.22 C 57.71 95.837 58.983 96.123 60.26 96.044 C 63.73 96.395 67.202 95.366 69.921 93.182 M 70.639 45.955 L 70.639 88.889 C 70.561 90.166 70.847 91.439 71.463 92.56 C 72.08 93.68 73.003 94.603 74.124 95.22 C 75.244 95.837 76.517 96.123 77.794 96.044 C 81.264 96.395 84.737 95.366 87.456 93.182"
        fill="none"
        stroke="#000000"
        stroke-width="8"
        stroke-linecap="round"
        stroke-miterlimit="8.1482"/>
    <path
        id="path_5"
        d="M 70.639 58.121 L 80.438 58.121"
        fill="none"
        stroke="#000000"
        stroke-width="8"
        stroke-linecap="round"
        stroke-linejoin="round"/>
    <path
        id="path_6"
        d="M 53.104 88.889 L 53.128 58.122"
        fill="none"
        stroke="#000000"
        stroke-width="8"
        stroke-linecap="round"
        stroke-miterlimit="8.1482"/>
    <path
        id="path_7"
        d="M 96 16.5 C 74.923 16.5 54.688 24.882 39.785 39.785 C 24.882 54.688 16.5 74.923 16.5 96 C 16.5 117.077 24.882 137.312 39.785 152.215 C 54.688 167.118 74.923 175.5 96 175.5 C 117.077 175.5 137.312 167.118 152.215 152.215 C 167.118 137.312 175.5 117.077 175.5 96 C 175.5 74.923 167.118 54.688 152.215 39.785 C 137.312 24.882 117.077 16.5 96 16.5 Z"
        fill="none"
        stroke="#000000"
        stroke-width="8"
        stroke-linecap="round"
        stroke-linejoin="round"/>
</svg>
